libs/ui/packages/crypto-icons/src/svg/DGB.svg

<svg width="24" height="24" viewBox="0 0 24 24" fill="none">
<path fill-rule="evenodd" clip-rule="evenodd" d="M8.90097 18.75L9.26022 17.7885L8.62272 17.8515L8.39322 18.459C8.37522 18.5047 8.36022 18.5527 8.33697 18.5962C8.28672 18.69 8.20947 18.7485 8.10222 18.7492C7.62972 18.75 7.15872 18.7492 6.68622 18.7485C6.67497 18.7485 6.66372 18.7417 6.63897 18.7342L6.94047 17.9205C6.39072 17.9055 5.85597 17.8965 5.32347 17.8357C5.33247 17.736 8.36997 10.077 8.49072 9.84673C8.52072 9.84448 8.55597 9.83923 8.59197 9.83923H11.0445C11.0692 9.83923 11.094 9.83923 11.118 9.84073C11.3662 9.85948 11.5042 10.0695 11.418 10.308C11.3032 10.623 11.1817 10.9365 11.064 11.25L9.52047 15.3555C9.50472 15.3975 9.49122 15.441 9.47172 15.498C9.51522 15.5002 9.54897 15.5047 9.58272 15.5032C11.9047 15.402 13.6087 14.2935 14.7097 12.2107C14.9505 11.7555 15.1199 11.2661 15.2122 10.7595C15.267 10.4632 15.2842 10.1662 15.21 9.86998C15.1352 9.55741 14.9491 9.2828 14.6865 9.09748C14.3355 8.84473 13.941 8.73673 13.515 8.73448H5.24997C5.26797 8.68948 5.27622 8.65948 5.29047 8.63248L6.33147 6.75673C6.38004 6.65893 6.45588 6.57728 6.54985 6.52165C6.64381 6.46602 6.75186 6.43878 6.86097 6.44323H11.2605L11.7112 5.25073H13.0477C13.0807 5.25073 13.1137 5.24848 13.1452 5.25298C13.2405 5.26798 13.2952 5.34298 13.281 5.44048C13.275 5.48098 13.26 5.51998 13.245 5.55898C13.1527 5.80723 13.0582 6.05473 12.966 6.30298C12.9502 6.34498 12.9375 6.38773 12.921 6.43798H13.5247C13.5397 6.40573 13.5547 6.37273 13.5682 6.33898L13.9402 5.35123C13.9777 5.25148 13.9792 5.25073 14.079 5.25073C14.502 5.25073 14.9257 5.24923 15.3487 5.25073C15.5272 5.25148 15.591 5.34598 15.5272 5.51848C15.426 5.79523 15.3217 6.06973 15.2182 6.34498C15.204 6.38323 15.1912 6.42223 15.1732 6.47473C15.2145 6.48223 15.2482 6.48973 15.282 6.49423C15.8707 6.56623 16.4437 6.69973 16.9875 6.94498C17.4007 7.13173 17.7765 7.37548 18.0855 7.71748C18.504 8.17873 18.7117 8.72998 18.7447 9.35248C18.7762 9.95623 18.666 10.5382 18.4657 11.1C17.9917 12.4312 17.3182 13.641 16.3432 14.6602C15.6712 15.3622 14.8957 15.9202 14.0452 16.3717C13.1272 16.8592 12.1567 17.2005 11.1517 17.442C11.0617 17.4645 11.0145 17.5035 10.9837 17.592C10.8735 17.8995 10.7565 18.2055 10.641 18.5115C10.5697 18.699 10.4985 18.75 10.302 18.75H8.90097Z" fill="#006AD2"/>
</svg>

<svg width="24" height="24" viewBox="0 0 24 24" fill="none"><path fill="#006ad2" fill-rule="evenodd" d="m8.901 18.75.36-.962-.638.064-.23.607c-.018.046-.033.094-.056.137-.05.094-.128.152-.235.153H6.686c-.011 0-.022-.007-.047-.015l.301-.814c-.55-.015-1.084-.024-1.617-.084.01-.1 3.047-7.759 3.168-7.99q.046-.005.101-.007h2.452q.038 0 .074.002c.248.018.386.229.3.467-.115.315-.236.629-.354.942L9.52 15.355l-.048.143c.043.002.077.007.11.005 2.323-.101 4.027-1.21 5.128-3.292.24-.456.41-.945.502-1.452.055-.296.072-.593-.002-.889a1.32 1.32 0 0 0-.524-.773 1.97 1.97 0 0 0-1.171-.363H5.25c.018-.045.026-.075.04-.102l1.041-1.875a.56.56 0 0 1 .53-.314h4.4l.45-1.192h1.337c.033 0 .066-.003.097.002.096.015.15.09.136.187a.6.6 0 0 1-.036.119l-.279.744c-.016.042-.028.085-.045.135h.604q.023-.048.043-.099l.372-.988c.038-.1.04-.1.139-.1q.635-.002 1.27 0c.178 0 .242.095.178.267q-.152.415-.309.827l-.045.13.109.02a5.8 5.8 0 0 1 1.706.45c.413.187.788.43 1.098.772.418.462.626 1.013.659 1.635a4.5 4.5 0 0 1-.28 1.748c-.473 1.331-1.147 2.541-2.122 3.56a9 9 0 0 1-2.298 1.712c-.918.487-1.888.829-2.893 1.07-.09.023-.137.061-.168.15q-.167.462-.343.92c-.071.187-.143.238-.339.238z" clip-rule="evenodd"/></svg>
